/* XPM */
static char *result[] = {
/* columns rows colors chars-per-pixel */
"64 64 244 2 ",
"   c #0E0000",
".  c #34110A",
"X  c #34211C",
"o  c #030E31",
"O  c #0C253B",
"+  c #302E2D",
"@  c #503117",
"#  c #4A3A35",
"$  c #553B34",
"%  c #4D332C",
"&  c #603920",
"*  c #4B423A",
"=  c #5A463A",
"-  c #524A30",
";  c #644838",
":  c #745438",
">  c #000D49",
",  c #082948",
"<  c #062858",
"1  c #122B55",
"2  c #0E315A",
"3  c #16355A",
"4  c #1A3247",
"5  c #273849",
"6  c #313951",
"7  c #0D3366",
"8  c #143464",
"9  c #1B3C6B",
"0  c #183967",
"q  c #163A71",
"w  c #0D2D65",
"e  c #213E6A",
"r  c #4D3C4C",
"t  c #394956",
"y  c #364B55",
"u  c #1B4475",
"i  c #1D436F",
"p  c #274566",
"a  c #234474",
"s  c #254C7D",
"d  c #274979",
"f  c #365679",
"g  c #375071",
"h  c #574944",
"j  c #4A5356",
"k  c #585858",
"l  c #4E4F4A",
"z  c #6A5548",
"x  c #765848",
"c  c #785C54",
"v  c #694D52",
"b  c #796559",
"n  c #746651",
"m  c #4E5771",
"M  c #70596E",
"N  c #5A626B",
"B  c #686968",
"V  c #786A68",
"C  c #76746B",
"Z  c #6C7476",
"A  c #777779",
"S  c #6D6A72",
"D  c #5E615C",
"F  c #805A3D",
"G  c #835C49",
"H  c #8C5259",
"J  c #826552",
"K  c #836C5C",
"L  c #886759",
"P  c #956857",
"I  c #987258",
"U  c #906D52",
"Y  c #A57456",
"T  c #985A65",
"R  c #8F596D",
"E  c #A55A65",
"W  c #A44963",
"Q  c #876863",
"!  c #97686B",
"~  c #8B7C6C",
"^  c #877468",
"/  c #967869",
"(  c #866874",
")  c #897A74",
"_  c #977A76",
"`  c #9A6978",
"'  c #A47968",
"]  c #A87778",
"[  c #A5696D",
"{  c #7C817B",
"}  c #89847A",
"|  c #988576",
" . c #90836B",
".. c #A78669",
"X. c #A78877",
"o. c #B48775",
"O. c #B8967B",
"+. c #A8987E",
"@. c #AC825F",
"#. c #0E4B8C",
"$. c #284D82",
"%. c #2A5589",
"&. c #335A88",
"*. c #285596",
"=. c #355D94",
"-. c #3C6389",
";. c #3A649C",
":. c #3A6596",
">. c #3B69A5",
",. c #3D70A7",
"<. c #2A5DA3",
"1. c #4A5E83",
"2. c #446B99",
"3. c #49729D",
"4. c #47719A",
"5. c #556C8A",
"6. c #797D82",
"7. c #6C7A93",
"8. c #456DA5",
"9. c #4B76AB",
"0. c #4874A9",
"q. c #537AAA",
"w. c #4B7AB5",
"e. c #527DB5",
"r. c #577FB7",
"t. c #8E758C",
"y. c #AF7886",
"u. c #C27C8D",
"i. c #7D8488",
"p. c #758799",
"a. c #5985B9",
"s. c #5481AD",
"d. c #7485A8",
"f. c #658AB7",
"g. c #7094B3",
"h. c #5C8BC3",
"j. c #6794C9",
"k. c #769BCA",
"l. c #6D97D0",
"z. c #77A1CC",
"x. c #77A5D8",
"c. c #898788",
"v. c #978A85",
"b. c #9B948A",
"n. c #9D9A8D",
"m. c #979487",
"M. c #8C9395",
"N. c #8A9999",
"B. c #9C9D93",
"V. c #989896",
"C. c #8B8F8F",
"Z. c #A98887",
"A. c #A3958C",
"S. c #A49B8D",
"D. c #AA9787",
"F. c #B89687",
"G. c #B68995",
"H. c #A39E93",
"J. c #A39A97",
"K. c #B99797",
"L. c #B18790",
"P. c #9EA599",
"I. c #96A08C",
"U. c #A3A295",
"Y. c #A4A49B",
"T. c #AAA69C",
"R. c #A5AB9B",
"E. c #ABAA9D",
"W. c #A8A494",
"Q. c #B3AC9C",
"!. c #B5A69A",
"~. c #B3A791",
"^. c #8688A5",
"/. c #9A9CA5",
"(. c #8D93AB",
"). c #AD96A3",
"_. c #9AA8AB",
"`. c #A4A4A1",
"'. c #ABA4A3",
"]. c #ACACA2",
"[. c #A8AAA7",
"{. c #B1ADA4",
"}. c #B6A8A8",
"|. c #ADB1A6",
" X c #B2B1A6",
".X c #B3B3AA",
"XX c #BAB6AC",
"oX c #BBB9AE",
"OX c #BCB4A2",
"+X c #A9A9B3",
"@X c #B9A6B7",
"#X c #BBBAB2",
"$X c #B5B6B3",
"%X c #AAB3B4",
"&X c #C59096",
"*X c #CBA598",
"=X c #C5A48E",
"-X c #C498A4",
";X c #CE9BAC",
":X c #C6A5A9",
">X c #C2B4AB",
",X c #D9B8AC",
"<X c #CAABB5",
"1X c #D5A8B7",
"2X c #C9B8BB",
"3X c #D5B7B9",
"4X c #D6A4AB",
"5X c #E4B1B9",
"6X c #BEC1B6",
"7X c #C3C5BA",
"8X c #EFCFBD",
"9X c #8CA8CC",
"0X c #84ABD8",
"qX c #8BB2DC",
"wX c #94ABD1",
"eX c #AFB3C7",
"rX c #96B9E2",
"tX c #95BFF1",
"yX c #8D9EC1",
"uX c #D9B9C5",
"iX c #DDB6CC",
"pX c #E5BBC7",
"aX c #F1BEC3",
"sX c #BBC4C9",
"dX c #DAC3C9",
"fX c #DDC9D4",
"gX c #D1D2D4",
"hX c #E4C6CB",
"jX c #ECCCDB",
"kX c #E7C7D6",
"lX c #F2CDDA",
"zX c #EBD3DC",
"xX c #E9D3DB",
"cX c #F2D3DC",
"vX c #ECD5CA",
"bX c #EBD8E3",
"nX c #F3DCE5",
"mX c #F5D9E6",
"MX c #F1CCE3",
"NX c #F5E4EB",
"BX c #F7E4EA",
"VX c #FBE7F2",
"CX c #F1EEF2",
"ZX c None",
/* pixels */
"ZXZXZXZXZXZXZXZXZXZXZXZXZXZXZXZXZXZXZXZXZXZXZXZXZXZXZXZXZXZXZXZXZXZXZXZXZXZXZXZXZXZXZXZXZXZXZXZXZXZXZXZXZXZXZXZXZXZXZXZXZXZXZXZX",
"ZXZXZXZXZXZXZXZXZXZXZXZXZXZXZXZXZXZXZXZXZXZXZXZXZXZXZXZXZXZXZXZXZXZXZXZXZXZXZXZXZXZXZXZXZXZXZXZXZXZXZXZXZXZXZXZXZXZXZXZXZXZXZXZX",
"ZXZXZXZXZXZXZXZXZXZXZXZXZXZXZXZXZXZXZXZXZXZXZXZXZXZXZXZXZXZXZXZXZXZXZXZXZXZXZXZXZXZXZXZXZXZXZXZXZXZXZXZXZXZXZXZXZXZXZXZXZXZXZXZX",
"ZXZXZXZXZXZXZXZXZXZXZXZXZXZXZXZXZXZXZXZXZXZXZXZXZXZXZXZXZXZXZXZXZXZXZXZXZXZXZXZXZXZXZXZXZXZXZXZXZXZXZXZXZXZXZXZXZXZXZXZXZXZXZXZX",
"ZXZXZXZXZXZXZXZXZXZXZXZXZXZXZXZXZXZXZXZXZXZXZXZXZXZXZXZXZXZXZXZXZXZXZXZXZXZXZXZXZXZXZXZXZXZXZXZXZXZXZXZXZXZXZXZXZXZXZXZXZXZXZXZX",
"ZXZXZXZXZXZXZXZXZXZXZXZXZXZXZXZXZXZXZXZXZXZXZXZXZXZXZXZXZXZXZXZXZXZXZXZXZXZXZXZXZXZXZXZXZXZXZXZXZXZXZXZXZXZXZXZXZXZXZXZXZXZXZXZX",
"ZXZXZXZXZXZXZXZXZXZXZXZXZXZXZXZXZXZXZXZXZXZXZXZXZXZXZXZXZXZXZXZXZXZXZXZXZXZXZXZXZXZXZXZXZXZXZXZXZXZXZXZXZXZXZXZXZXZXZXZXZXZXZXZX",
"ZXZXZXZXZXZXZXZXZXZXZXZXZXZXZXZXZXZXZXZXZXZXZXZXZXZXZXZXZXZXZXZXZXZXZXZXZXZXZXZXZXZXZXZXZXZXZXZXZXZXZXZXZXZXZXZXZXZXZXZXZXZXZXZX",
"ZXZXZXZXZXZXZXZXZXZXZXZXZXZXZXZXZXZXZXZXZXZXZXZXZXZXZXZXZXZXZXZXZXZXZXZXZXZXZXZXZXZXZXZXZXZXZXZXZXZXZXZXZXZXZXZXZXZXZXZXZXZXZXZX",
"ZXZXZXZXZXZXZXZXZXZXZXZXZXZXZXZXZXZXZXZXZXZXZXZXZXZXZXZXZXZXZXI / ^ ZXZXZXZXZXZXZXZXZXZXZXZXZXZXZXZXZXZXZXZXZXZXZXZXZXZXZXZXZXZX",
"ZXZXZXZXZXZXZXZXZXZXZXZXZXZXZXZXZXZXZXZXZXZXZXZXZXZXZXZXZXU Y @.U : L D.ZXZXZXZXZXZXZXZXZXZXZXZXZXZXZXZXZXZXZXZXZXZXZXZXZXZXZXZX",
"ZXZXZXZXZXZXZXZXZXZXZXZXZXZXZXZXZXZXZXZXZXZXZXZXZXZXZXZXJ I @.O.O.=X*XD._ ZXZXZXZXZXZXZXZXZXZXZXZXZXZXZXZXZXZXZXZXZXZXZXZXZXZXZX",
"ZXZXZXZXZXZXZXZXZXZXZXZXZXZXZXZXZXZXZXZXZXZXZXZXZXZXZX| F @.O.7X8X8X,XX.^ ZXZXZXZXZXZXZXZXZXZXZXZXZXZXZXZXZXZXZXZXZXZXZXZXZXZXZX",
"ZXZXZXZXZXZXZXZXZXZXZXZXZXZXZXZXZXZXZXZXZXZXZXZXZXZXZXK U U D.dX8X,XK._ Q ~ ZXZXZXZXZXZXZXZXZXZXZXZXZXZXZXZXZXZXZXZXZXZXZXZXZXZX",
"ZXZXZXZXZXZXZXZXZXZXZXZXZXZXZXZXZXZXZXZXZXZXZXZXZXZX .x U F v.!.| / / / n T.ZXZXZXZXZXZXZXZXZXZXZXZXZXZXZXZXZXZXZXZXZXZXZXZXZXZX",
"ZXZXZXZXZXZXZXZXZXZXZXZXZXZXZXZXZXZXZXZXZXZXZXZXZXZX^ n : x K.X.x G ' b @ dXCXZXZXZXZXZXZXZXZXZXZXZXZXZXZXZXZXZXZXZXZXZXZXZXZXZX",
"ZXZXZXZXZXZXZXZXZXZXZXZXZXZXZXZXZXZXZXZXZXZXZXZXZXZXK F ; / ,XF.I *XF.x . [.CXZXZXZXZXZXZXZXZXZXZXZXZXZXZXZXZXZXZXZXZXZXZXZXZXZX",
"ZXZXZXZXZXZXZXZXZXZXZXZXZXZXZXZXZXZXZXZXZXZXZXZXZX) ; @ L _ G.F.&X*X] c . /.CXZXZXZXZXZXZXZXZXZXZXZXZXZXZXZXZXZXZXZXZXZXZXZXZXZX",
"ZXZXZXZXZXZXZXZXZXZXZXZXZXZXZXZXZXZXZXZXZXZXZXZXZX^ G & x c Q ] ../ x z   V.CXZXZXZXZXZXZXZXZXZXZXZXZXZXZXZXZXZXZXZXZXZXZXZXZXZX",
"ZXZXZXZXZXZXZXZXZXZXZXZXZXZXZXZXZXZXZXZXZXZXZXZXZX^ / : x c z c ! J $ =   t.bXZXZXZXZXZXZXZXZXZXZXZXZXZXZXZXZXZXZXZXZXZXZXZXZXZX",
"ZXZXZXZXZXZXZXZXZXZXZXZXZXZXZXZXZXZXZXZXZXZXZXZXZX^ I x x c $ c L G $ % X l Y.ZXZXZXZXZXZXZXZXZXZXZXZXZXZXZXZXZXZXZXZXZXZXZXZXZX",
"ZXZXZXZXZXZXZXZXZXZXZXZXZXZXZXZXZXZXZXZXZXZXZXZX/ x G $ b / ; z v h $ X X h } ZXZXZXZXZXZXZXZXZXZXZXZXZXZXZXZXZXZXZXZXZXZXZXZXZX",
"ZXZXZXZXZXZXZXZXZXZXZXZXZXZXZXZXZXZXZXZXZXZX) b J J b & K +.P ; $ $ % X # z A.ZXZXZXZXZXZXZXZXZXZXZXZXZXZXZXZXZXZXZXZXZXZXZXZXZX",
"ZXZXZXZXZXZXZXZXZXZXZXZXZXZXZXZXZXZXZXZXV.v. .: : J L $ L =X] x $ % + X b b | v.) ZXZXZXZXZXZXZXZXZXZXZXZXZXZXZXZXZXZXZXZXZXZXZX",
"ZXZXZXZXZXZXZXZXZXZXZXZXZXZXZXZXZXZXZXZX2X/ I / G ; x z ..O.o.x $ # $ X x / J z h B B ZXZXZXZXZXZXZXZXZXZXZXZXZXZXZXZXZXZXZXZXZX",
"ZXZXZXZXZXZXZXZXZXZXZXZXZXZXZXZXZXZXZXfXBXdX] : I : = | D.F.X.z ; v $ r r l * * = * h ZXZXZXZXZXZXZXZXZXZXZXZXZXZXZXZXZXZXZXZXZX",
"ZXZXZXZXZXZXZXZXZXZXZXZXZXZXZXZXZXZX2XVXVXBX7X/ J ; = ~.:X=XG./ I X.( S f u i 6 * * l + ZXZXZXZXZXZXZXZXZXZXZXZXZXZXZXZXZXZXZXZX",
"ZXZXZXZXZXZXZXZXZXZXZXZXZXZXZXZXZX[.NXVXVXVXcXZ.x z x | A.=X:XA.D.X.( 5.4.:.s 6 4 3 6 4 5 t ZXZXZXZXZXZXZXZXZXZXZXZXZXZXZXZXZXZX",
"ZXZXZXZXZXZXZXZXZXZXZXZXZXZXZXZXZXdXNXNXBXVXcXK.L H K.}.! Q _ Q Q c ( 7.s.,.:.s 8 i :.3.&.y ZXZXZXZXZXZXZXZXZXZXZXZXZXZXZXZXZXZX",
"ZXZXZXZXZXZXZXZXZXZXZXZXZXZXZXZXZXNXNXNXVXNXmXdXZ.L.hXxXuX:X_ h R -X@Xr.,.s.;.%.q $.0.a.s.&.+ ZXZXZXZXZXZXZXZXZXZXZXZXZXZXZXZXZX",
"ZXZXZXZXZXZXZXZXZXZXZXZXZXZXZXZXdXVXNXBXNXNXnXfX3XhXcXNXcXvX3X' *XpXeX7.0.s.,.%.0 s >.w.j.3.5 ZXZXZXZXZXZXZXZXZXZXZXZXZXZXZXZXZX",
"ZXZXZXZXZXZXZXZXZXZXZXZXZXZXZXZXgXNXBXnXNXbXbXdX<XxXbXbXbXxXhX,X5X<X+Xf.0.a.s.f 8 s s e.j.e.f 5 ZXZXZXZXZXZXZXZXZXZXZXZXZXZXZXZX",
"ZXZXZXZXZXZXZXZXZXZXZXZXZXZXZXZXxXzXnXnXbXbXzXhX<XfXbXgXkXhXuX1XpX<Xg.f.:.e.3.-.8 d a 8.h.a.4.p y l ZXZXZXZXZXZXZXZXZXZXZXZXZXZX",
"ZXZXZXZXZXZXZXZXZXZXZXZXZXZXZX2XBXNXnXNXbXxXzXuX;XiXfXfXdXuX2XiXuX/.g.s.*.=.:.:.7 a u :.w.>.w.3.y y ZXZXZXZXZXZXZXZXZXZXZXZXZXZX",
"ZXZXZXZXZXZXZXZXZXZXZXZXZXZXZXkXBXmXnXnXbXfXkX-XG.iXuXdXuX<X<XiX).d.k.,.*.u &.&.w 9 s :.;.j.j.e.-.y j ZXZXZXZXZXZXZXZXZXZXZXZXZX",
"ZXZXZXZXZXZXZXZXZXZXZXZXZXZX<XMXkXjXxXxXxXdX-X] y.uXdX}.3X4XiX@X7.x.h.*.=.i f f < i u &.j.x.h.s.s.p y ZXZXZXZXZXZXZXZXZXZXZXZXZX",
"ZXZXZXZXZXZXZXZXZXZXZXZXZXZXhXkXlXjXkXdXjXkXZ.R G.pX;X<XiX-X<X(._.0X0.%.=.7 f f < 0 q 0.l.a.9.9.s.i 5 ZXZXZXZXZXZXZXZXZXZXZXZXZX",
"ZXZXZXZXZXZXZXZXZXZXZXZXZX3XkXMXcXzXxXjXlXMXL.H -X4X&XiX1X).t.0XqXk.%.%.s < =.a 2 2 d 9.w.>.w.r.s.&.4 4 ZXZXZXZXZXZXZXZXZXZXZXZX",
"ZXZXZXZXZXZXZXZXZXZXZXZXpXlXkXjXzXfXkXuXaXpX] R &Xy.;XiXu.r.wXtXqXf.q s 7 1.=.0 8 7 $.;.;.0.h.h.,.*.&.f p ZXZXZXZXZXZXZXZXZXZXZX",
"ZXZXZXZXZXZXZXZXZXZX>XzXlXkXjXmXbXzXdXG.y.u.E E ] &XG.t.7.wXtXx.r.9.=.< &.9.e 0 2 7 $.$.=.j.h.8.,.w.0.:.-.p ZXZXZXZXZXZXZXZXZXZX",
"ZXZXZXZXZXZXZXZXZX).lX5XiXkXjXjXbXbXcX4XT E E T y.y.t.7.wX0Xa.8.9.r.&.0 4.$.8 0 3 8 a $.;.r.8.r.l.l.a.s.s.2.-.1.ZXZXZXZXZXZXZXZX",
"ZXZXZXZXZXZXZXZXZX<X1X1XpXkXlXkXjXzXlX5X[ E E W t.t.7.wX0Xh.h.x.x.8.a 0.=.w 0 0 3 1 0 $.$.&.a.x.x.l.g.k.z.j.q.4.f ZXZXZXZXZXZXZX",
"ZXZXZXZXZXZXZXZXZ.:X<XpXMXbXMXjXfXfXkX5X[ T E H H t.9XqXl.r.l.0Xa.u q.8.0 8 8 0 3 < 0 i q 8.j.x.l.k.qXrX0Xj.a.w.;.p ZXZXZXZXZXZX",
"ZXZXZXZXZXZXZXK.3XkXlXMXcXnXMXMXpX;X5X5XE Q H c 5.(.qXx.j.j.j.8.$.8.8.q e e 8 e 1 , 3 8 =.8.e.l.0XrXrX9Xk.a.h.j.0.i j ZXZXZXZXZX",
"ZXZXZXZXZXZX&XaXcXnXMXMXMXkXkX1X;Xy.G.G.W H m 5.q.q.a.w.9.8.&.u :.2.9 9 9 8 q e 4 , 1 d 8.<.l.x.f.j.k.0Xz.z.a.9.&.p y y ZXZXZXZX",
"ZXZXZXZXZX] ;X4X2XuXiXMXiXkXiXuXy.! ] ` R m 1.1.,.,.0.8.;.u q =.;.9 q 9 8 q q e 1 1 1 e d 2.k.5.$.e.f.f.g.s.7.m 6 O y * l ZXZXZX",
"ZXZXZXZXZX` G.y.G.:XfXbXmXjXiXuX-X[ t.R r $.8.e.w.a.r.r.8.u d ;.s 7 0 7 0 q q 8 1 8 < 0 u w.r.e 8.*.$.2.7././.v.( k 5 o * D ZXZX",
"ZXZXZXZXZXQ ] ] K.).}.iXfXiX1X1X-XE R v < %.*.8.a.q.=.e 9 a $.q > w 7 < < < > > o > 1 q *.w.>.<.>.=.q.m t.L.] F.=XA.C l + - : ZX",
"ZXZXZXC  .X.&X[ o.3X2X}.).;X;X).] T R r 3 f i 2 2 , o 0 e 8 < e 4.p.N 7.p.f.d.p.7.m o w *.<.#.#.*.4.1.M ` ] o.o.O.X.) ) V ; - ZX",
"ZXZXn  .....o.P G A.'./.V ( t.L.! H R r , 4 O o O O 4 3 3 3 3 y p.g.p.g.g._.sX(.^.m o 5 g f N B N m k ( V I O.O.o.' P h b D - @ ",
"ZX= n K c J G x x c ( ) V V _ _ _ / ) A Z Z Z A A 6.6.5.p.p.p.p.Z Z Z B D N N m j N k k k ^ +.@./ c V B D k | F.o.Y ! G * * - z ",
"v { C.c.n.c.b x J G K K | B.V.J.A.I.I.P.V.V.I.J.M.i.i.N.M.M.M.C.{ Z C C c.C.i.M.M.C.B.C.A ~ ..@.P c V A B C } X.Y Y U I b = n { ",
"N.N.N.`.+XV.V z x z Q X.~ m.P.E.~.R.P.P.'.P.`.Y.C.M._.P.c.C B B Z S A J.[.%X$XgXgX[.%X%XN.}  ...X. . .V C c.| X.X.U U P b V ~ | ",
"c.} c.v._ v.} C } m.b.b.m.B.S.+.D.D.Q..X%X|.|.[.B.[.$X[.i.B Z A i.C.V./././.+XsXsX(.c.M.{  .X.O.D.D.~ $ n _  .~  . .~  .| | D.| ",
"C.Q._ Q V v.H.n.]..XOXXX>XD./ ' I I _ }.$X]..X.X`.V.C.A A i.{ i.6.A i.6.Z A A { k t j j { +.~.O.+.n. .z c | m.} m.m.b.b.H.E.D.^ ",
">XD.| v.v.K. X XoX.XOX7X>XX./ ..I U J A.2X#X6X6X#X$XE.C.{ { A B D j k k k B Z B D Z { V. XOXO. . .P.|.E.Y.{. XE.|.R.Q.{.{.OXQ.| ",
"OX~.*X>XXX>X#X$X.X X.XXXoXOXS.+.+.D.Q.6X6X7X6X6X7X7X7X7X7X7X$X[.`.`.`.V.V.M.Y.]. X.X6X6XoX XQ.~.E.|.XXoXXX{.U.Y.R.P.R.Y.Y.E.E.S.",
"T.E.!.E.}.Q.T.H.P.R.Y.Y.R.|.R.R.W.R.R.R.P.P.U.Y.U.Y.R.U.Y.|.|.].R.[.|.].].P.]. XQ. XE.E.E.E.Q.Q.Q.'.T.T.n.m.m.C.m.m.B.I.B.B.B.S.",
"Y.U.Y.Y.'.T.T.V.n.B.Y.Y.P.P.U.Y.Y.`.`.`.P.P.Y.Y.U.Y.U.P.U.E.W.Y.P.U.Y.Y.Y.Y.E.].E.E.R.E.|.E.E.E.Q.].H.H.b.v.n.A.n.n.P.n.n.B.n.m.",
"`.E.'.{..X.X].T.B.Y.].E.`.'.'.'.'.'.'.'.[.].E.R.R.Y.Y.Y.E.|.].'.Y.Y.Y.T.T.W.].{.Q.].E.E.E.E.E.E.{.{.J.J.b.b.A.n.m.m.n.m.m.m.m.m.",
"].R.]. X.X.X.X[.Y.].|.'.'.'.].}.].].'.E.T.'.`.Y.Y.P.Y.Y.E.].].T.'.].T.T.Y.T.T.'.E.].T.E.].].].].].Y.n.n.n.n.n.S.S.m.| m.m.S.S.S.",
"].].]..X.X.X$X.X X.X|. X X X.X.X|.|.].E.{.].[.].].'.].].{..X X{.{.].'.].'.T.'.R.].].].].].].].[.E.E.S.P.P.S.S.W.W.W.S.b.S.H.W.W.",
" X|..X.XXX#X$XXX#XXXXXoX#X#X#XoX.X.X.X.X.X X X X X].]. X X].].{. X{.[.E.Y.T.E.Y.W.T.E.W.E.E.E.E.E.R.U.U.H.n.H.U.U.H.A.A.H.H.S.W.",
"$X$X$X$X$X#XoXXXoX.XXXoXXXXXXXoXOX.X X X.X.X.X.X.X X{. X X X].].].].T.T.'.].].E.E.E.W.E.W.E.W.W.W.W.U.S.U.U.W.Y.W.W.b.H.W.W.H.W."
};
