/* XPM */
static char *result[] = {
/* columns rows colors chars-per-pixel */
"64 64 220 2 ",
"   c #050404",
".  c #1B1818",
"X  c #0F0C0A",
"o  c #340503",
"O  c #211D1A",
"+  c #210D05",
"@  c #2A231C",
"#  c #131427",
"$  c #1A2326",
"%  c #372E27",
"&  c #332F2F",
"*  c #4D0A05",
"=  c #51180A",
"-  c #581713",
";  c #431E10",
":  c #56260E",
">  c #4A281A",
",  c #5D331D",
"<  c #4C2609",
"1  c #632817",
"2  c #7E3713",
"3  c #5E3422",
"4  c #483733",
"5  c #513E37",
"6  c #603027",
"7  c #4C413F",
"8  c #73492C",
"9  c #7F6A3A",
"0  c #4C4648",
"q  c #574948",
"w  c #564F54",
"e  c #5F565B",
"r  c #655B5C",
"t  c #6A5E5D",
"y  c #645755",
"u  c #6B5249",
"i  c #77685B",
"p  c #7F755F",
"a  c #655B60",
"s  c #6D6261",
"d  c #716564",
"f  c #7A6C68",
"g  c #797777",
"h  c #803B14",
"j  c #8B581C",
"k  c #8B4E1A",
"l  c #86601E",
"z  c #854F47",
"x  c #8A7B5F",
"c  c #866752",
"v  c #887764",
"b  c #917F6E",
"n  c #B7882E",
"m  c #AF872C",
"M  c #C08B2F",
"N  c #D1A438",
"B  c #EAAD3C",
"V  c #EFB63F",
"C  c #F1B13E",
"Z  c #9B816C",
"A  c #988779",
"S  c #9D927E",
"D  c #AB9B7C",
"F  c #B29075",
"G  c #C39658",
"H  c #D2AB5F",
"J  c #EDBC41",
"K  c #F3BC41",
"L  c #EBBE53",
"P  c #D4AB63",
"I  c #C1A77A",
"U  c #F3BE63",
"Y  c #EEC543",
"T  c #F3C343",
"R  c #F3CB45",
"E  c #F2C94C",
"W  c #F2D047",
"Q  c #EBC458",
"!  c #F2C859",
"~  c #F3D557",
"^  c #F2D266",
"/  c #ECC676",
"(  c #F4C473",
")  c #F3D575",
"_  c #F6D77B",
"`  c #F3D168",
"'  c #7D7B82",
"]  c #807E84",
"[  c #7D8285",
"{  c #8C8E8F",
"}  c #848586",
"|  c #938C86",
" . c #98928D",
".. c #8F8E93",
"X. c #939393",
"o. c #9C9B9B",
"O. c #989695",
"+. c #A99789",
"@. c #B59D8B",
"#. c #B89C84",
"$. c #A19D9C",
"%. c #B09E91",
"&. c #B8A389",
"*. c #A7A198",
"=. c #BCB18E",
"-. c #A3A3A3",
";. c #ACACAC",
":. c #A6A7A7",
">. c #AFB1B3",
",. c #B3B3B3",
"<. c #BCBCBC",
"1. c #B4AEAA",
"2. c #C29F86",
"3. c #C4A58B",
"4. c #CAA68D",
"5. c #CBA98D",
"6. c #C2A388",
"7. c #D7AC8D",
"8. c #DBB88D",
"9. c #CAAA90",
"0. c #D4B396",
"q. c #DCB291",
"w. c #DAB99B",
"e. c #D6B79B",
"r. c #E4B28F",
"t. c #E4B593",
"y. c #E7B996",
"u. c #E9BB97",
"i. c #EABD9B",
"p. c #E6BC9A",
"a. c #CBB9A7",
"s. c #D8BCA1",
"d. c #C2BFBE",
"f. c #E5BFA1",
"g. c #D7C298",
"h. c #EACA88",
"j. c #F3C987",
"k. c #EDD783",
"l. c #ECC19E",
"z. c #EACA97",
"x. c #EDDC97",
"c. c #F4D98C",
"v. c #F0E19F",
"b. c #DDC2A4",
"n. c #D8C5A9",
"m. c #C7C0BA",
"M. c #DACAB8",
"N. c #CEC0A9",
"B. c #EDC5A3",
"V. c #EFC8A6",
"C. c #EBC7AA",
"Z. c #EDCBAB",
"A. c #E4C5A8",
"S. c #F0C6A3",
"D. c #F1C9A6",
"F. c #F1CCAB",
"G. c #EAD5A9",
"H. c #F3D0AF",
"J. c #F2D7A0",
"K. c #EBCCB3",
"L. c #E6CEB7",
"P. c #EDD3B5",
"I. c #EDD2BB",
"U. c #E9D7B8",
"Y. c #F5D4B2",
"T. c #F8D7B5",
"R. c #F7D8B7",
"E. c #F8D8B6",
"W. c #F2D5BA",
"Q. c #F7DABA",
"!. c #F8DCBC",
"~. c #F2CFB2",
"^. c #F2E3A5",
"/. c #EDE4BA",
"(. c #F9E1BF",
"). c #EDE1A4",
"_. c #C4C4C4",
"`. c #CCCCCC",
"'. c #CAC7C5",
"]. c #D1CFCE",
"[. c #D9D4CB",
"{. c #CED0D1",
"}. c #D3D3D3",
"|. c #DBDBDB",
" X c #DBD9D7",
".X c #EBD4C4",
"XX c #EBDAC5",
"oX c #ECDACB",
"OX c #E9D9CB",
"+X c #F2DCC3",
"@X c #F9DFC1",
"#X c #F1D9C5",
"$X c #EBDED2",
"%X c #E3D9D2",
"&X c #ECE5C6",
"*X c #F9E0C2",
"=X c #F9E4CA",
"-X c #F6E3C8",
";X c #EDE3D4",
":X c #EDE9D3",
">X c #ECE5DC",
",X c #EDEADD",
"<X c #E4E0D8",
"1X c #FAEAD2",
"2X c #F7EAD9",
"3X c #E3E3E3",
"4X c #ECEAE3",
"5X c #EDEDEC",
"6X c #E8E5E0",
"7X c #F1EFEB",
"8X c #F5EFE4",
"9X c #FCF6EE",
"0X c #FAF3E7",
"qX c #EEEFF1",
"wX c #EFF2F5",
"eX c #F1F2F3",
"rX c #FCF9F3",
"tX c #FFFEFD",
"yX c #F0EFF0",
"uX c None",
/* pixels */
"uXuXuXuXuXuXuXuXuXuXuXuXuXuXuXuXuXuXuXuXuXuXuXuXuXuXuXuXuXuXuXuXuXuXuXuXuXuXuXuXuXuXuXuXuXuXuXuXuXuXuXuXuXuXuXuXuXuXuXuXuXuXuXuX",
"uXuXuXuXuXuXuXuXuXuXuXuXuXuXuXuXuXuXuXuXuXuXuXuXuXuXuXuXuXuXuXuXuXuXuXuXuXuXuXuXuXuXuXuXuXuXuXuXuXuXuXuXuXuXuXuXuXuXuXuXuXuXuXuX",
"uXuXuXuXuXuXuXuXuXuXuXuXuXuXuXuXuXuXuXuXuXuXuXuXuXuXuXuXuXuXuXuXuXuXuXuXuXuXuXuXuXuXuXuXuXuXuXuXuXuXuXuXuXuXuXuXuXuXuXuXuXuXuXuX",
"uXuXuXuXuXuXuXuXuXuXuXuXuXuXuXuXuXuXuXuXuXuXuXuXuXuXuXuXuXuXuXuXuXuXuXuXuXuXuXuXuXuXuXuXuXuXuXuXuXuXuXuXuXuXuXuXuXuXuXuXuXuXuXuX",
"uXuXuXuXuXuXuXuXuXuXuXuXuXuXuXuXuXuXuXuXuXuXuXuXuXuXuXuXuXuXuXuXuXuXuXuXuXuXuXuXuXuXuXuXuXuXuXuXuXuXuXuXuXuXuXuXuXuXuXuXuXuXuXuX",
"uXuXuXuXuXuXuXuXuXuXuXuXuXuX5X:X/.x.k.` ~ E R R R R T R T T T T T T T T T T T Y Y R W ~ uXuXuXuXuXuXuXuXuXuXuXuXuXuXuXuXuXuXuXuX",
"uXuXuXuXuXuXuXuXuXuXuXuXuX:Xx.^ R T T K K ! / h.z.Z.P.I.XXOXoXOXM.M.N.a.N.L.G.z.h./ Q Y R R W ~ _ ^.uXuXuXuXuXuXuXuXuXuXuXuXuXuX",
"uXuXuXuXuXuXuXuXuXuXuXuXuX^ T K Q z.P.OX>X4X5XqXwXwXwXwXeXwX|.,...} } ' { <.3XwX5X5X4X;XU.G.h.Q Y T k.uXuXuXuXuXuXuXuXuXuXuXuXuX",
"uXuXuXuXuXuXuXuXuXuXuXuXJ.C V G.,XwXwXeXeXwX7XqX7X5X7X7XyX`.g 4 5 q u y u y $.%XqXyXqXwXwXwX5X;Xh.B V uXuXuXuXuXuXuXuXuXuXuXuXuX",
"uXuXuXuXuXuXuXuXuXuXuXuXuXB V ) ^.-X,X4X5XyX5XwXqXyXyXyX5X .4 0 w e t t d t a d.qXqX5X5X4X:X&Xv.~ C uXuXuXuXuXuXuXuXuXuXuXuXuXuX",
"uXuXuXuXuXuXuXuXuXuXuXuXuXuXV V T R ) x.)./.&X:X>X,X,X8X[.0 $ # # & 0 y t s y 1.&X&XP.x.c.^ R T K uXuXuXuXuXuXuXuXuXuXuXuXuXuXuX",
"uXuXuXuXuXuXuXuXuXuXuXuXuXuXuXuXuXK K T T T E ~ ^ ) ) k.I t v Z b c 0 0 r s y x L R T T K K E uXuXuXuXuXuXuXuXuXuXuXuXuXuXuXuXuX",
"uXuXuXuXuXuXuXuXuXuXuXuXuXuXuXuXuXuXuXuXuXuXU L K ! ( j.l.A.D.H.H.F.q.f y s a d P ( j.uXuXuXuXuXuXuXuXuXuXuXuXuXuXuXuXuXuXuXuXuX",
"uXuXuXuXuXuXuXuXuXuXuXuXuXuXuXuXuXuXuXuXuXuX;XW.D.F.~.Y.Y.Y.H.H.~.F.Y.9.d t r s a.$XuXuXuXuXuXuXuXuXuXuXuXuXuXuXuXuXuXuXuXuXuXuX",
"uXuXuXuXuXuXuXuXuXuXuXuXuXuXuXuXuXuXuXuXuX+XY.Y.F.Y.F.H.F.F.H.F.F.F.Y.s.f s a v e.uXuXuXuXuXuXuXuXuXuXuXuXuXuXuXuXuXuXuXuXuXuXuX",
"uXuXuXuXuXuXuXuXuXuXuXuXuXuXuXuXuXuXuX#XF.D.F.F.Y.H.F.Y.Y.H.Y.~.Y.F.Y.e.f s w A f.B.B.K.;XuXuXuXuXuXuXuXuXuXuXuXuXuXuXuXuXuXuXuX",
"uXuXuXuXuXuXuXuXuXuXuXuXuXuXuXuXuXuXW.S.F.H.H.Y.H.H.Y.H.Y.H.F.Y.Y.Y.Y.%.d r e 9.F.F.C.S.S.oXuXuXuXuXuXuXuXuXuXuXuXuXuXuXuXuXuXuX",
"uXuXuXuXuXuXuXuXuXuXuXuXuXuXuXuXuXW.B.F.F.H.Y.F.Y.H.H.Y.H.Y.Y.Y.H.Y.w.b r t &.F.F.F.F.V.S.S.XXuXuXuXuXuXuXuXuXuXuXuXuXuXuXuXuXuX",
"uXuXuXuXuXuXuXuXuXuXuXuXuXuXuXuXK.S.D.F.F.H.H.Y.Y.Y.Y.Y.Y.Y.Y.Y.Y.~.B.0.#.s.Y.F.H.H.H.F.F.S.S..XuXuXuXuXuXuXuXuXuXuXuXuXuXuXuXuX",
"uXuXuXuXuXuXuXuXuXuXuXuXuXuXuXK.B.F.F.Y.Y.Y.F.Y.Y.Y.Y.Y.Y.Y.T.Y.Y.Y.T.T.T.T.Y.H.Y.H.H.H.F.V.D.B.oXuXuXuXuXuXuXuXuXuXuXuXuXuXuXuX",
"uXuXuXuXuXuXuXuXuXuXuXuXuXuX.Xf.B.F.F.H.Y.Y.Y.Y.Y.Y.T.Y.Y.Y.T.T.T.T.Y.T.Y.Y.Y.Y.Y.H.H.H.H.F.F.B.F.uXuXuXuXuXuXuXuXuXuXuXuXuXuXuX",
"uXuXuXuXuXuXuXuXuXuXuXuXuX$XS.S.F.F.Y.Y.Y.H.H.Y.R.Y.Y.R.R.R.R.Q.W.T.T.T.T.T.Y.Y.Y.Y.Y.Y.H.H.F.F.l.I.uXuXuXuXuXuXuXuXuXuXuXuXuXuX",
"uXuXuXuXuXuXuXuXuXuXuXuXuXK.S.S.F.F.F.Y.Y.Y.Y.T.Y.R.T.Q.Q.R.Q.Q.Q.Q.Q.T.R.W.Y.T.Y.Y.Y.H.H.H.H.F.S.B.oXuXuXuXuXuXuXuXuXuXuXuXuXuX",
"uXuXuXuXuXuXuXuXuXuXuXuX$XB.f.V.F.Y.Y.Y.H.Y.T.Y.R.Q.Q.Q.Q.Q.!.!.!.Q.Q.Q.!.R.R.T.T.T.Y.Y.Y.H.H.Z.F.l.K.uXuXuXuXuXuXuXuXuXuXuXuXuX",
"uXuXuXuXuXuXuXuXuXuXuXuXL.i.B.F.H.Y.Y.Y.Y.Y.T.Q.Q.Q.Q.!.!.!.!.!.!.!.!.!.!.Q.Q.Q.T.Y.T.Y.Y.Y.H.H.F.B.B.$XuXuXuXuXuXuXuXuXuXuXuXuX",
"uXuXuXuXuXuXuXuXuXuXuXuXB.i.B.F.F.Y.H.Y.T.T.T.Q.Q.!.!.!.!.@X@X!.!.@X!.!.!.!.!.Q.Q.T.Y.R.Y.H.Y.H.F.S.i.I.uXuXuXuXuXuXuXuXuXuXuXuX",
"uXuXuXuXuXuXuXuXuXuXuXXXi.l.F.F.H.H.Y.Y.T.T.Q.!.!.!.!.*X@X@X@X@X*X@X@X*X*X!.!.!.!.Q.T.Y.Y.Y.Y.H.F.S.l.C.uXuXuXuXuXuXuXuXuXuXuXuX",
"uXuXuXuXuXuXuXuXuXuXuXK.p.B.F.F.Y.Y.Y.Y.T.Q.Q.Q.!.@X!.(.@X@X@X@X*X@X@X!.*X!.!.!.Q.Q.Q.T.T.Y.Y.H.F.F.B.B.uXuXuXuXuXuXuXuXuXuXuXuX",
"uXuXuXuXuXuXuXuXuXuXuXA.i.B.F.F.Y.Y.Y.T.T.!.!.!.*X@X@X@X@X@X@X@X@X@X@X@X!.!.*X!.!.!.Q.Q.T.Y.Y.H.F.V.B.i.oXuXuXuXuXuXuXuXuXuXuXuX",
"uXuXuXuXuXuXuXuXuXuXuXB.i.B.F.F.Y.H.Y.Q.R.Y.Y.F.F.T.@X@X@X@X@X@X@X@X@X@X*X!.Y.Y.H.F.Y.T.T.T.Y.H.Y.F.S.i.I.uXuXuXuXuXuXuXuXuXuXuX",
"uXuXuXuXuXuXuXuXuXuXuXl.l.B.F.Y.Y.Y.T.Q.T.R.W.W.T.T.Q.@X@X@X@X@X@X@X@X@X@XQ.Y.Y.T.Y.H.Y.T.Y.Y.Y.H.F.S.i.K.uXuXuXuXuXuXuXuXuXuXuX",
"uXuXuXuXuXuXuXuXuXuXOXi.l.S.F.H.T.T.Q.!.!.!.(.*X@X-X@X@X@X@X@X*X*X@X@X@X@X*X*X@X*X!.!.!.W.T.Y.Y.H.F.V.i.C.4XuXuXuXuXuXuXuXuXuXuX",
"uXuXuXuXuXuXuXuX#XW.C.u.f.B.F.Y.R.R.Q.R.P.G.A.U.W.!.-X*X*X*X*X*X*X*X*X*X*X@XQ.K.b.b.G.G.R.R.Y.Y.H.D.V.l.l.K.W.uXuXuXuXuXuXuXuXuX",
"uXuXuXuXuXuXuXW.S.S.u.u.S.S.F.Y.Y.T.R.XXN.D v i +.M.+X*X*X@X(.@X*X@X*X*X!.P.a.D p i S M.P.Y.Y.Y.H.H.V.l.i.l.S.S.uXuXuXuXuXuXuXuX",
"uXuXuXuXuXuXuXF.B.V.i.p.f.S.F.Y.R.Z.2X[.9 g.=.@ + +.XX!.*X*X*X*X*X*X*X@XW.n.v n.D @   S 4XI.Y.Y.H.D.B.l.i.B.D.l.uXuXuXuXuXuXuXuX",
"uXuXuXuXuXuXuXC.B.V.i.u.S.S.F.Y.V.U.9X+.@ Z x O o u M.-X!.*X*X@X*X@X*X!.-X*.> Z x O o 8 .X8XP.H.Y.F.V.l.i.B.D.l.uXuXuXuXuXuXuXuX",
"uXuXuXuXuXuXuXC.B.S.f.u.l.S.F.Y.V.2XrXS .   X O < j A.0X*X@X*X*X*X*X*X!.2XS .     X > j n.rXXXF.H.F.B.l.p.V.D.l.uXuXuXuXuXuXuXuX",
"uXuXuXuXuXuXuXK.B.S.B.u.l.C.F.F.Y.0XtX*.@ % . # j M XX9X=X*X*X*X*X*X!.*X0X*.@ & $ # l n U.eX-XY.H.D.B.l.l.B.B.l.uXuXuXuXuXuXuXuX",
"uXuXuXuXuXuXuXI.f.S.B.p.i.B.F.F.H.-X9X<Xz 2 j m N g.0X9X*X*X@X*X*X*X(.=XrX>Xz h j m N 8.7X7X+XT.F.V.l.i.l.B.B.l.uXuXuXuXuXuXuXuX",
"uXuXuXuXuXuXuX#XS.B.B.u.i.B.V.Y.H.H.(.0XOX6.G H b.8XrX2X*X*X*X*X(.*X*X*X2XrX>X3.G P g.4X2X-XY.H.F.V.l.l.l.B.B.C.uXuXuXuXuXuXuXuX",
"uXuXuXuXuXuXuXuXB.B.B.p.p.f.S.F.H.Y.Y.R.=X1XoX;X2X1X*X@X@X@X@X=X*X*X*X!.!.*X1X1XXXOX1X=XQ.Y.Y.Y.F.S.i.p.i.S.l.I.uXuXuXuXuXuXuXuX",
"uXuXuXuXuXuXuXuXI.B.B.y.u.i.B.F.H.Y.R.R.R.Q.*X*X!.!.@X@X@X!.*X1X1XQ.Q.!.*X!.Q.(.*X(.Q.R.T.T.Y.H.F.S.i.y.B.B.l.uXuXuXuXuXuXuXuXuX",
"uXuXuXuXuXuXuXuX$XB.l.u.y.i.S.F.H.H.Y.R.W.!.(.!.@X*X@X@X!.F.F.@XQ.D.H.Q.@X@X*X!.!.!.Q.Q.T.Y.Y.F.V.S.u.t.i.i.K.uXuXuXuXuXuXuXuXuX",
"uXuXuXuXuXuXuXuXuXoXZ.A.t.u.B.S.H.H.Y.R.R.Q.!.(.@X@X@X@X!.i.t.t.t.t.F.Q.*X*X!.*X!.!.Q.T.T.Y.Y.F.S.i.t.q.f.I.uXuXuXuXuXuXuXuXuXuX",
"uXuXuXuXuXuXuXuXuX3X X].s.t.i.B.F.H.Y.Y.R.R.!.!.@X@X@X@X!.Y.i.t.y.l.Y.!.!.*X*X!.!.Q.Q.T.Y.H.H.F.B.y.7.a.].uXuXuXuXuXuXuXuXuXuXuX",
"uXuXuXuXuX3X3X3XuX|.}.{.1.7.u.l.B.F.H.Y.Y.R.R.!.!.@X@X!.@X!.R.Y.Y.T.!.!.*X!.(.!.Q.Q.T.Y.Y.Y.F.B.i.t.@._.{.uXuXuXuXuXuXuXuXuXuXuX",
"uXuXuXuX3X4X3X3X3X}.;.:.X.@.q.i.B.F.H.H.Y.Y.R.R.R.f.5.4.5.4.9.9.5.5.4.5.3.&.A.Q.Q.Q.T.Y.H.F.F.B.i.4.| -.$.<.|.uXuXuX3XuXuXuXuXuX",
"uX|.|.3X3X|.}.}.'.d.-.-.>.$.5.y.l.B.F.H.H.H.Y.R.R.I % ; = * * * * * * = + 8 e.!.Q.T.Y.Y.H.F.B.i.q.+.;.;.o.,._.`.}.}.|.3X3X}.uXuX",
"uX`._.'.`._.,.;.;.<.`.`.}.>. .7.u.B.S.F.~.Y.Y.Y.E.T.F 6 : , , 3 3 , : = z e.Q.T.T.Y.Y.Y.F.S.i.t.+. ._.{._.'.,.:.>.<._.'.'._.uXuX",
"uX5X|.<.-.o.-.,.`. X`.:.$.o.X.%.q.i.B.S.F.F.H.Y.Y.T.T.A.F 8 - - - 1 c #.G.Q.T.T.Y.Y.H.F.V.i.u.3. .O.$.o.<.{.}.`.>.o.o.:.`.uXuXuX",
"uXqX4X{._.`.}.}.}._.<.d.,.,._.:.+.q.i.B.D.F.H.H.Y.H.Y.Q.Q.H.b.w.w.A.Y.!.Q.T.Y.Y.H.H.F.S.B.u.6. .<.d.>.d.<.<.`.{.|.}.'._.|.uXuXuX",
"uX5X|.3X|.|.}._.>.;._.}.{.>.:.X.{ @.q.u.B.B.C.F.H.Y.H.H.Y.T.Q.Q.E.(.R.Y.Y.Y.Y.H.H.F.S.S.u.9. .{ o.-.d.{.{.<.;.<._.}.|.3X|.3XuXuX",
"uX|.'.`._.<.;.-.;.`.}.'.<.>.;.-.:.o.+.7.y.l.B.C.H.H.Y.H.Y.H.H.H.H.H.Y.Y.Y.Y.H.~.F.S.i.p.4. .-.-.:.;.;.<.`.}.d.:.-.>.<.`.`.'.uXuX",
"uXuX|.`._.;.o.<.`.`._.,.;.<._.,.-.{ [ | 2.q.i.B.B.D.F.F.H.H.H.Y.H.Y.H.H.H.F.F.S.B.p.q.@.} } O.-.<._.<.>.<._.{.`.;.-.<.'.uXuXuXuX",
"uXuXuXuX3X`.}.}.`.<.:.:.<.<.;.-.;.:.-.{ } A 9.p.l.l.B.B.D.F.F.F.H.F.H.F.S.B.i.B.t.#.| ] { -.;.-.-.,.d.,.-.;.d.`.}.`. XuXuXuXuXuX",
"uXuXuXuX|.{.`._.,.O.-.<.<.,.o.o.>.;.O.{ X.g :.%X.XA.i.l.l.l.l.l.l.S.S.S.B.B.L.oX'.[ } { X.-.,.;.X.-.,.d.,.o.-.<.'.{.{.uXuXuXuXuX",
"uXuXuXuXuXuX<.<.;.:.<.<.;.O.O.:.;.-.X.O.O.} <.uXuXuXuXuX.XI.K.K.Z.P.#XoXuXuXuXuXuXo.X.O.X.O.:.;.-...-.,.<.,.-.,.<.<.'.uXuXuXuXuX",
"uXuXuXuXuXuXuXuX`._.<.;.-.O.:.>.:.O.X.o.X.X.uXuXuXuXuXuXuXuXuXuXuXuXuXuXuXuXuXuXuX,...o.o.{ o.:.;.o.o.:.,.<._.uXuXuXuXuXuXuXuXuX",
"uXuXuXuXuXuXuXuX_.,.,.<.`.,.;.:.O.{ o.-.{ :.uXuXuXuXuXuXuXuXuXuXuXuXuXuXuXuXuXuXuX`.O.o.-.X.X.o.;.;._._.,.,.uXuXuXuXuXuXuXuXuXuX",
"uXuXuXuXuXuXuXuXuXuXuXuXuX;.-.o.,.,.-.O.O.uXuXuXuXuXuXuXuXuXuXuXuXuXuXuXuXuXuXuXuXuX,.O.O.;.<.:.o.-._.uXuXuXuXuXuXuXuXuXuXuXuXuX",
"uXuXuXuXuXuXuXuXuXuXuXuXuX<.d.}.5X].o.-.uXuXuXuXuXuXuXuXuXuXuXuXuXuXuXuXuXuXuXuXuXuXuX<.O.;.3X3X`.<.uXuXuXuXuXuXuXuXuXuXuXuXuXuX",
"uXuXuXuXuXuXuXuXuXuXuXuXuXuXuXuXuXuXuXuXuXuXuXuXuXuXuXuXuXuXuXuXuXuXuXuXuXuXuXuXuXuXuXuXuXuXuXuXuXuXuXuXuXuXuXuXuXuXuXuXuXuXuXuX",
"uXuXuXuXuXuXuXuXuXuXuXuXuXuXuXuXuXuXuXuXuXuXuXuXuXuXuXuXuXuXuXuXuXuXuXuXuXuXuXuXuXuXuXuXuXuXuXuXuXuXuXuXuXuXuXuXuXuXuXuXuXuXuXuX",
"uXuXuXuXuXuXuXuXuXuXuXuXuXuXuXuXuXuXuXuXuXuXuXuXuXuXuXuXuXuXuXuXuXuXuXuXuXuXuXuXuXuXuXuXuXuXuXuXuXuXuXuXuXuXuXuXuXuXuXuXuXuXuXuX"
};
